Numix-Circle/48x48/apps/docear.svg

<?xml version="1.0" encoding="UTF-8" standalone="no"?>
<svg
   xmlns:dc="http://purl.org/dc/elements/1.1/"
   xmlns:cc="http://creativecommons.org/ns#"
   xmlns:rdf="http://www.w3.org/1999/02/22-rdf-syntax-ns#"
   xmlns:svg="http://www.w3.org/2000/svg"
   xmlns="http://www.w3.org/2000/svg"
   xmlns:xlink="http://www.w3.org/1999/xlink"
   xmlns:sodipodi="http://sodipodi.sourceforge.net/DTD/sodipodi-0.dtd"
   xmlns:inkscape="http://www.inkscape.org/namespaces/inkscape"
   width="48"
   viewBox="0 0 13.546667 13.546667"
   height="48"
   id="svg2"
   version="1.1"
   inkscape:version="0.91 r13725"
   sodipodi:docname="docear.svg">
  <metadata
     id="metadata331">
    <rdf:RDF>
      <cc:Work
         rdf:about="">
        <dc:format>image/svg+xml</dc:format>
        <dc:type
           rdf:resource="http://purl.org/dc/dcmitype/StillImage" />
        <dc:title />
      </cc:Work>
    </rdf:RDF>
  </metadata>
  <sodipodi:namedview
     pagecolor="#ffffff"
     bordercolor="#666666"
     borderopacity="1"
     objecttolerance="10"
     gridtolerance="10"
     guidetolerance="10"
     inkscape:pageopacity="0"
     inkscape:pageshadow="2"
     inkscape:window-width="1920"
     inkscape:window-height="1052"
     id="namedview329"
     showgrid="true"
     inkscape:zoom="15.370449"
     inkscape:cx="14.918858"
     inkscape:cy="27.321095"
     inkscape:window-x="0"
     inkscape:window-y="28"
     inkscape:window-maximized="1"
     inkscape:current-layer="layer3">
    <inkscape:grid
       type="xygrid"
       id="grid3308" />
  </sodipodi:namedview>
  <defs
     id="defs4">
    <linearGradient
       inkscape:collect="always"
       xlink:href="#linearGradient4460-9-27"
       id="linearGradient4033"
       x1="-27"
       y1="13"
       x2="-24"
       y2="13"
       gradientUnits="userSpaceOnUse" />
    <linearGradient
       id="linearGradient4460-9-27">
      <stop
         id="stop4454-2"
         style="stop-color:#4a85ba;stop-opacity:1;"
         offset="0" />
      <stop
         id="stop4456-7"
         style="stop-color:#629cd0;stop-opacity:1;"
         offset="1" />
    </linearGradient>
  </defs>
  <g
     inkscape:groupmode="layer"
     id="layer1"
     inkscape:label="Shadow"
     sodipodi:insensitive="true">
    <path
       style="opacity:0.05;fill:#000000;fill-opacity:1;stroke:none"
       d="M 25,2 C 12.297451,2 2,12.297451 2,25 2,31.367153 4.6007106,37.116628 8.78125,41.28125 12.865755,44.99361 18.29568,47.25 24.25,47.25 c 12.702549,0 23,-10.297451 23,-23 0,-5.95432 -2.25639,-11.384245 -5.96875,-15.46875 C 37.116628,4.6007105 31.367153,2 25,2 z M 41.28125,8.78125 C 45.135604,12.894061 47.5,18.418655 47.5,24.5 c 0,12.702549 -10.297451,23 -23,23 C 18.418655,47.5 12.894061,45.135604 8.78125,41.28125 12.940939,45.4251 18.664604,48 25,48 37.702549,48 48,37.702549 48,25 48,18.664604 45.4251,12.940939 41.28125,8.78125 z"
       transform="scale(0.28222223,0.28222223)"
       id="path3978"
       inkscape:connector-curvature="0" />
    <path
       style="opacity:0.1;fill:#000000;fill-opacity:1;stroke:none"
       d="M 41.28125,8.78125 C 44.99361,12.865755 47.25,18.29568 47.25,24.25 c 0,12.702549 -10.297451,23 -23,23 -5.95432,0 -11.384245,-2.25639 -15.46875,-5.96875 C 12.894061,45.135604 18.418655,47.5 24.5,47.5 c 12.702549,0 23,-10.297451 23,-23 0,-6.081345 -2.364396,-11.605939 -6.21875,-15.71875 z"
       transform="scale(0.28222223,0.28222223)"
       id="path3976"
       inkscape:connector-curvature="0" />
    <path
       transform="matrix(4.3274074,0,0,3.2455556,117.19278,-35.348334)"
       d="m -24,13 a 1.5,2 0 1 1 -3,0 1.5,2 0 1 1 3,0 z"
       sodipodi:ry="2"
       sodipodi:rx="1.5"
       sodipodi:cy="13"
       sodipodi:cx="-25.5"
       id="path3952"
       style="opacity:0.2;fill:#000000;fill-opacity:1;stroke:none"
       sodipodi:type="arc" />
  </g>
  <g
     inkscape:groupmode="layer"
     id="layer2"
     inkscape:label="Base">
    <path
       sodipodi:type="arc"
       style="fill:url(#linearGradient4033);fill-opacity:1.0;stroke:none"
       id="path3942"
       sodipodi:cx="-25.5"
       sodipodi:cy="13"
       sodipodi:rx="1.5"
       sodipodi:ry="2"
       d="m -24,13 a 1.5,2 0 1 1 -3,0 1.5,2 0 1 1 3,0 z"
       transform="matrix(0,-4.3274075,3.2455556,0,-35.418894,-103.57556)" />
    <path
       style="opacity:0.1;fill:#000000;fill-opacity:1;stroke:none"
       d="M 40.03125 7.53125 C 43.74361 11.615755 46 17.04568 46 23 C 46 35.702549 35.702549 46 23 46 C 17.04568 46 11.615755 43.74361 7.53125 40.03125 C 11.709416 44.322508 17.537578 47 24 47 C 36.702549 47 47 36.702549 47 24 C 47 17.537578 44.322508 11.709416 40.03125 7.53125 z "
       id="path4027"
       transform="scale(0.28222223,0.28222223)" />
  </g>
  <g
     inkscape:groupmode="layer"
     id="layer3"
     inkscape:label="Symbol">
    <g
       id="g4017"
       transform="matrix(0.28222223,0,0,0.28222223,0.56444446,0.2822222)"
       style="opacity:0.1">
      <path
         style="fill:#000000;fill-opacity:1;stroke:none"
         d="m 16,11 c -1.108,0 -2,0.892 -2,2 l 0,20 c 0,1.108 0.892,2 2,2 l 16,0 c 1.108,0 2,-0.892 2,-2 l 0,-14 -8,-8 z m 2,2 7,0 7,7 0,11 c 0,1.108 -0.892,2 -2,2 l -12,0 c -1.108,0 -2,-0.892 -2,-2 l 0,-16 c 0,-1.108 0.892,-2 2,-2 z"
         id="path4011"
         inkscape:connector-curvature="0"
         sodipodi:nodetypes="ssssssccssccssssss" />
      <rect
         style="fill:#000000;fill-opacity:1;stroke:none"
         id="rect4013"
         width="2"
         height="10"
         x="23"
         y="12" />
      <rect
         y="-33"
         x="20"
         height="9"
         width="2"
         id="rect4015"
         style="fill:#000000;fill-opacity:1;stroke:none"
         transform="matrix(0,1,-1,0,0,0)" />
    </g>
    <path
       style="fill:#f9f9f9;fill-opacity:1;stroke:none"
       d="m 4.7977779,3.1044445 c -0.3127023,0 -0.5644445,0.2517422 -0.5644445,0.5644444 l 0,5.6444446 c 0,0.312702 0.2517422,0.5644443 0.5644445,0.5644443 l 4.5155557,0 c 0.312702,0 0.564444,-0.2517423 0.564444,-0.5644443 l 0,-3.9511112 -2.2577775,-2.2577778 z m 0.5644444,0.5644444 1.9755556,0 1.9755557,1.9755557 0,3.1044449 c 0,0.312702 -0.251742,0.564444 -0.564444,0.564444 l -3.3866673,0 c -0.3127022,0 -0.5644444,-0.251742 -0.5644444,-0.564444 l 0,-4.5155561 c 0,-0.3127023 0.2517422,-0.5644445 0.5644444,-0.5644445 z"
       id="rect4002"
       inkscape:connector-curvature="0"
       sodipodi:nodetypes="ssssssccssccssssss" />
    <rect
       style="fill:#f9f9f9;fill-opacity:1;stroke:none"
       id="rect4007"
       width="0.56444448"
       height="2.8222222"
       x="6.773334"
       y="3.3866668" />
    <rect
       y="-9.5955553"
       x="5.6444445"
       height="2.54"
       width="0.56444448"
       id="rect4009"
       style="fill:#f9f9f9;fill-opacity:1;stroke:none"
       transform="matrix(0,1,-1,0,0,0)" />
  </g>
</svg>

<svg xmlns="http://www.w3.org/2000/svg" width="48" viewBox="0 0 13.546667 13.546667" height="48">
 <defs>
  <linearGradient id="linearGradient4033" x1="-27" x2="-24" gradientUnits="userSpaceOnUse">
   <stop style="stop-color:#4a85ba;stop-opacity:1"/>
   <stop offset="1" style="stop-color:#629cd0;stop-opacity:1"/>
  </linearGradient>
 </defs>
 <g>
  <path d="m 25 2 c -12.703 0 -23 10.297 -23 23 0 6.367 2.601 12.12 6.781 16.281 4.085 3.712 9.514 5.969 15.469 5.969 c 12.703 0 23 -10.297 23 -23 0 -5.954 -2.256 -11.384 -5.969 -15.469 c -4.165 -4.181 -9.914 -6.781 -16.281 -6.781 z m 16.281 6.781 c 3.854 4.113 6.219 9.637 6.219 15.719 c 0 12.703 -10.297 23 -23 23 c -6.081 0 -11.606 -2.364 -15.719 -6.219 4.16 4.144 9.883 6.719 16.219 6.719 12.703 0 23 -10.297 23 -23 0 -6.335 -2.575 -12.06 -6.719 -16.219 z" transform="scale(0.28222223,0.28222223)" style="fill:#000;opacity:0.05;fill-opacity:1;stroke:none"/>
  <path d="m 41.28 8.781 c 3.712 4.085 5.969 9.514 5.969 15.469 c 0 12.703 -10.297 23 -23 23 -5.954 0 -11.384 -2.256 -15.469 -5.969 c 4.113 3.854 9.637 6.219 15.719 6.219 c 12.703 0 23 -10.297 23 -23 0 -6.081 -2.364 -11.606 -6.219 -15.719 z" transform="scale(0.28222223,0.28222223)" style="fill:#000;opacity:0.1;fill-opacity:1;stroke:none"/>
  <path transform="matrix(4.3274074,0,0,3.2455556,117.19278,-35.348334)" d="m -24 13 a 1.5 2 0 1 1 -3 0 1.5 2 0 1 1 3 0 z" style="fill:#000;opacity:0.2;fill-opacity:1;stroke:none"/>
 </g>
 <g>
  <path d="m -24 13 a 1.5 2 0 1 1 -3 0 1.5 2 0 1 1 3 0 z" transform="matrix(0,-4.3274075,3.2455556,0,-35.418894,-103.57556)" style="fill:url(#linearGradient4033);fill-opacity:1;stroke:none"/>
  <path d="m 40.03 7.531 c 3.712 4.085 5.969 9.514 5.969 15.469 c 0 12.703 -10.297 23 -23 23 c -5.954 0 -11.384 -2.256 -15.469 -5.969 c 4.178 4.291 10.01 6.969 16.469 6.969 c 12.703 0 23 -10.297 23 -23 c 0 -6.462 -2.677 -12.291 -6.969 -16.469 z" transform="scale(0.28222223,0.28222223)" style="fill:#000;opacity:0.1;fill-opacity:1;stroke:none"/>
 </g>
 <g>
  <g transform="matrix(0.28222223,0,0,0.28222223,0.56444446,0.2822222)" style="opacity:0.1">
   <path d="m 18 12 c -1.108 0 -2 0.892 -2 2 l 0 20 c 0 1.108 0.892 2 2 2 l 16 0 c 1.108 0 2 -0.892 2 -2 l 0 -14 -8 -8 z m 2 2 5 0 0 9 c 3 0 6 0 9 0 l 0 9 c 0 1.108 -0.892 2 -2 2 l -12 0 c -1.108 0 -2 -0.892 -2 -2 l 0 -16 c 0 -1.108 0.892 -2 2 -2 z m 7 0 7 7 -7 0 z" transform="translate(-2,-0.99999989)"/>
  </g>
  <path d="m 4.798 3.104 c -0.313 0 -0.564 0.252 -0.564 0.564 l 0 5.644 c 0 0.313 0.252 0.564 0.564 0.564 l 4.516 0 c 0.313 0 0.564 -0.252 0.564 -0.564 l 0 -3.951 -2.258 -2.258 z m 0.564 0.564 1.976 0 1.976 1.976 0 3.104 c 0 0.313 -0.252 0.564 -0.564 0.564 l -3.387 0 c -0.313 0 -0.564 -0.252 -0.564 -0.564 l 0 -4.516 c 0 -0.313 0.252 -0.564 0.564 -0.564 z" style="fill:#f9f9f9;fill-opacity:1;stroke:none"/>
  <rect width="0.564" height="2.822" x="6.773" y="3.387" style="fill:#f9f9f9;fill-opacity:1;stroke:none"/>
  <rect y="-9.596" x="5.644" height="2.54" width="0.564" transform="matrix(0,1,-1,0,0,0)" style="fill:#f9f9f9;fill-opacity:1;stroke:none"/>
 </g>
</svg>
